widget/src/img/libra.svg

<?xml version="1.0" encoding="utf-8"?>
<svg version="1.0" width="1706.7" height="1698.7" viewBox="0 0 1280 1274" xmlns="http://www.w3.org/2000/svg">
  <path d="M 669.277 21.1 C 671.677 25.9 672.077 27.6 672.077 35.5 C 672.077 43.7 671.777 45.1 668.877 50.5 C 665.777 56.4 659.677 63 654.277 66.4 C 651.577 68.1 651.477 68.3 651.777 76.2 L 652.077 84.3 L 656.077 85.5 C 662.277 87.3 670.377 91.8 671.577 94 C 673.177 97 671.577 99.1 664.777 103 C 659.077 106.3 658.777 106.7 658.377 110.8 C 658.077 114.5 658.377 115.3 660.577 116.7 C 666.177 120.2 666.577 121.4 666.577 136.7 C 666.577 144.6 666.877 151 667.277 151 C 667.577 151 672.477 148.8 677.977 146.1 C 710.025 130.054 745.848 123.069 781.577 125.9 C 810.177 128.7 825.777 134.6 872.977 160.8 C 899.077 175.4 904.977 177.5 918.077 177.4 C 924.521 177.511 930.939 176.565 937.077 174.6 C 945.477 172.1 949.677 170.1 972.877 157.5 C 981.177 153 982.077 152.8 987.977 153.2 C 997.484 154.236 1006.345 158.508 1013.077 165.3 L 1016.777 169.5 L 1019.477 166.2 C 1020.977 164.5 1023.077 163 1024.177 163 C 1029.477 163 1044.777 175 1046.077 180.2 C 1046.977 183.9 1043.577 190.6 1036.777 198.1 C 1027.277 208.5 1023.077 209.5 1019.577 202 C 1016.077 194.5 1014.077 194.5 1005.877 201.5 C 993.877 211.7 989.577 219.2 989.577 229.7 C 989.577 236.2 991.677 240.7 995.177 241.6 C 998.477 242.4 1005.277 237.7 1007.877 232.6 C 1009.377 229.8 1010.377 229 1012.577 229 C 1018.014 229.767 1023.134 232.016 1027.377 235.5 L 1030.577 238.2 L 1024.877 249.2 C 1021.277 256.2 1017.977 261.1 1015.777 262.8 C 1006.677 270 1005.877 271.2 1005.077 277.8 C 1004.577 282.1 1003.977 284 1002.977 284 C 1001.877 284 1001.577 286.1 1001.577 293.9 L 1001.577 303.7 L 1008.677 304.4 C 1017.477 305.2 1019.377 306.2 1019.977 310.3 C 1020.277 312 1020.677 325 1021.077 339 C 1021.577 363.3 1023.377 386.7 1025.377 395.8 C 1026.677 401.5 1028.977 404.8 1033.077 406.7 C 1036.477 408.3 1036.677 408.3 1044.377 404.7 C 1048.677 402.7 1052.677 401 1053.377 401 C 1055.277 401 1057.377 405.2 1058.177 410.6 C 1058.877 416.5 1056.677 422.5 1053.477 423.5 C 1051.277 424.2 1051.177 425 1052.577 428.2 C 1077.171 499.492 1101.838 570.759 1126.577 642 L 1149.577 708.5 L 1193.577 835.5 C 1211.577 887 1220.577 913.4 1220.177 913.7 C 1219.977 913.9 1218.377 909.9 1216.577 904.8 C 1211.877 891.2 1194.777 843 1165.877 762 C 1140.477 690.9 1134.277 673.2 1109.377 602.5 C 1093.677 557.7 1048.477 426.3 1048.577 425.5 L 1042.277 425.8 C 1033.977 426.3 1028.477 424.7 1023.877 420.7 C 1018.077 415.6 1016.577 410.8 1014.977 392.6 C 1012.977 369.3 1011.077 363 1006.077 363 C 1003.977 363 1003.677 363.5 1003.077 368.2 C 1002.777 371.1 1002.877 377.5 1003.377 382.5 C 1003.877 387.4 1004.077 393.1 1003.777 395.1 C 1003.577 397.4 1004.177 400.4 1005.477 403.4 C 1007.377 407.5 1007.577 409.5 1007.377 420.8 L 1007.077 433.5 L 1003.977 433.8 L 1000.777 434.1 L 1000.177 449.3 C 999.877 457.7 999.177 500 998.577 543.5 C 997.169 633.832 995.835 724.166 994.577 814.5 L 993.277 903.6 L 993.077 917.7 L 1017.077 918.4 C 1085.577 920.3 1186.677 929.3 1243.577 938.6 C 1263.877 941.8 1276.577 945.1 1276.577 946.9 C 1276.577 948.6 1245.377 963.6 1223.077 972.6 C 1215.977 975.5 1210.577 977.9 1211.277 978 C 1212.677 978 1258.877 962.5 1268.877 958.7 L 1275.677 956 L 1274.977 958.3 C 1272.377 967 1248.977 994 1231.077 1009 C 1183.077 1048.583 1125.462 1074.768 1064.077 1084.9 C 947.177 1104.9 835.577 1073.7 761.977 1000.5 C 745.977 984.7 736.177 972.4 731.477 962.6 C 729.877 959.3 728.777 956.4 728.977 956.2 C 729.177 956 730.677 956.5 732.277 957.4 C 742.877 962.8 807.577 986.1 811.777 986 C 807.692 983.796 803.406 981.988 798.977 980.6 C 768.677 969.1 727.977 949.4 728.877 946.6 C 729.577 944.4 735.977 941 742.977 939 L 752.077 936.1 C 753.577 935.5 756.377 928.9 763.477 909.9 L 804.577 798.5 C 870.877 618.9 898.077 546.6 932.977 457.5 L 945.477 425.5 L 942.277 422.9 C 939.377 420.4 939.077 419.7 938.777 412.8 C 938.477 406.6 938.677 405 940.177 403.6 C 942.877 400.8 949.577 402 954.077 405.9 C 958.177 409.4 960.077 409.7 963.577 407.3 C 967.36 404.926 969.917 401.017 970.577 396.6 C 972.377 388.2 973.577 364.6 973.577 335.2 L 973.577 307 L 976.177 306 C 977.577 305.4 981.777 304.7 985.577 304.4 L 992.377 303.7 L 991.877 289.1 C 991.277 270.3 990.877 268.8 986.677 267.7 C 965.777 262.3 960.577 234.2 974.877 203.7 C 980.777 191.2 980.577 190 972.877 191.6 C 970.177 192.2 959.277 195.5 948.577 198.9 C 923.577 206.8 911.077 209.4 897.577 209.4 C 884.877 209.4 877.577 207.6 847.077 196.7 C 813.777 184.9 798.877 181 778.077 178.9 C 742.912 176.113 707.744 184.25 677.377 202.2 L 666.577 208.3 L 666.577 242.3 L 663.077 245.5 C 661.177 247.4 658.077 249.3 656.177 250 L 652.677 251.1 L 655.977 255.8 C 659.577 260.9 663.577 268.3 663.577 270 C 663.577 270.7 654.777 271 637.077 271 C 615.277 271 610.577 270.8 610.577 269.6 C 611.763 264.58 614.014 259.874 617.177 255.8 L 620.477 251.1 L 616.077 249 C 607.877 245.1 607.577 244.1 607.577 225.1 L 607.577 208.4 L 598.877 203.3 C 565.777 184.2 529.177 175.5 496.077 178.9 C 475.177 181.1 460.677 184.8 425.977 197.1 C 395.477 207.8 389.377 209.3 376.577 209.4 C 363.077 209.4 350.677 206.8 325.577 198.9 C 314.877 195.5 303.977 192.2 301.277 191.6 C 293.677 190 293.377 191.2 298.877 202.7 C 305.077 215.9 306.977 223.3 306.977 235.5 C 307.077 247 305.377 253.4 300.477 259.3 C 297.477 263 289.177 268 286.077 268 C 283.577 268 282.877 271.6 282.377 288.1 L 281.877 303.7 L 288.877 304.4 C 292.777 304.7 296.977 305.6 298.277 306.3 L 300.677 307.5 L 300.977 345.5 C 301.477 391 302.477 399.3 307.877 404.8 L 311.277 408.2 L 317.377 405.1 C 321.477 403 324.977 402 327.977 402 C 334.277 402 335.577 403.7 335.577 411.8 C 335.577 419.3 334.277 422.1 329.677 424.5 L 326.877 425.9 L 331.177 438.2 L 358.577 517.5 L 390.677 610.2 L 408.477 661.7 L 431.577 728.5 L 470.177 839.9 C 483.677 878.6 494.477 910.5 494.277 910.7 C 493.977 910.9 492.377 906.9 490.577 901.8 C 485.477 887.1 473.377 853 445.877 776 L 405.077 661 L 380.077 590 C 363.677 543.4 328.477 440.6 325.477 430.2 C 324.477 427.1 324.377 427 318.677 427 C 304.577 427 296.077 423.2 291.877 414.9 C 289.877 411.1 289.277 407.4 288.077 393.1 C 286.477 374.9 285.177 367.7 283.077 366 C 279.777 363.2 279.877 396.8 283.177 403.1 C 285.177 406.9 286.277 421.8 285.177 429.4 C 284.477 433.8 284.377 433.9 280.277 434.2 L 276.077 434.5 L 276.077 446.2 L 276.377 687.9 L 276.577 917.7 L 296.377 918.4 C 356.478 920.693 416.461 925.43 476.177 932.6 L 500.177 935.5 C 502.377 935.7 509.777 936.9 516.777 938 C 538.777 941.5 551.677 944.7 552.277 946.7 C 552.977 948.6 513.077 967.8 493.677 975 C 490.077 976.3 487.677 977.5 488.177 977.7 C 506.961 972.207 525.539 966.036 543.877 959.2 C 548.977 957.2 551.577 956.6 551.577 957.4 C 551.577 959.7 544.177 970.9 536.377 980.4 C 516.69 1002.281 494.037 1021.299 469.077 1036.9 C 456.277 1044.9 433.377 1056.4 417.777 1062.9 C 337.968 1094.932 249.771 1099.505 167.077 1075.9 C 128.577 1064.4 89.677 1044.1 59.577 1019.9 C 40.06 1004.487 23.057 986.135 9.177 965.5 C 3.477 956.1 4.077 955.4 13.877 959.6 C 34.477 968.5 83.977 985.9 85.177 984.8 C 85.377 984.5 80.977 982.7 75.377 980.6 C 58.096 974.146 41.201 966.7 24.777 958.3 C 0.977 946.5 0.877 946.1 16.477 940 L 22.777 937.5 L 33.277 909.5 L 72.277 804 C 136.777 628.8 159.577 568.3 203.077 456.8 L 215.777 424.1 L 213.677 421.4 C 211.977 419.3 211.577 417.3 211.577 412 C 211.577 404.6 211.877 404.2 217.877 402.1 C 221.477 400.9 222.077 401 229.077 404.3 C 236.477 407.8 236.477 407.8 238.877 406 C 244.477 401.6 245.577 392.5 246.277 345.8 L 246.877 307.1 L 249.877 306.1 C 251.477 305.5 255.177 305 257.977 305 C 265.477 305 265.977 304.4 265.177 296.7 C 264.277 287.5 265.477 273 267.177 273.7 C 269.577 274.6 267.477 270 264.377 267.7 C 257.607 263.182 252.347 256.738 249.277 249.2 L 243.577 238.2 L 246.777 235.5 C 250.877 232.1 257.877 229 261.577 229 C 263.777 229 264.777 229.8 266.277 232.6 C 268.877 237.7 275.677 242.4 278.977 241.6 C 286.777 239.7 286.277 221.4 278.277 211.3 C 276.477 209 271.977 204.6 268.277 201.5 C 259.977 194.4 257.777 194.5 254.377 202 C 250.977 209.4 248.377 209.1 239.177 199.7 C 230.977 191.6 226.977 184.5 228.077 180.2 C 229.377 174.9 244.677 163 250.377 163 C 251.777 163 252.977 163.9 253.777 165.4 C 255.577 169.5 257.577 169.4 261.277 165 C 266.077 159.4 277.977 153.7 285.977 153.2 C 292.677 152.8 291.277 152.2 318.577 166.8 C 330.1 173.582 343.207 177.203 356.577 177.3 C 366.077 177.4 367.877 177.1 374.877 174.3 C 384.576 169.832 394.084 164.961 403.377 159.7 C 451.777 132.7 469.177 126.7 503.077 125.4 C 535.701 124.704 568.003 131.981 597.177 146.6 C 602.177 149 606.477 151 606.877 151 C 607.277 151 607.577 144.5 607.577 136.6 L 607.577 122.2 L 611.577 118.6 C 615.077 115.5 615.577 114.4 615.577 110.8 C 615.577 106.6 615.477 106.4 609.977 103.6 C 603.577 100.2 600.677 96.7 602.277 94.1 C 603.977 91.4 609.577 88.1 615.977 86.1 L 622.077 84.2 L 622.377 76.2 L 622.677 68.1 L 618.877 65.6 C 604.577 56.5 598.077 39.1 603.577 24.7 C 607.855 13.737 616.744 5.214 627.877 1.4 C 642.477 -3.4 660.977 5.5 669.277 21.1 Z M 993.077 310.9 L 989.077 311.5 L 988.777 319.4 C 988.577 325.1 988.877 327.6 989.777 328.1 C 995.117 329.158 1000.602 329.259 1005.977 328.4 C 1007.277 327.9 1007.577 326.2 1007.577 319.9 C 1007.577 312.5 1007.477 312 1005.377 311.6 C 1000.277 310.6 996.877 310.4 993.077 310.9 Z M 267.877 311.7 C 265.977 312.4 266.077 326.4 267.977 327.9 C 268.777 328.6 271.677 329 274.777 328.8 L 280.077 328.5 L 280.377 321 C 280.577 314.8 280.377 313.3 278.977 312.3 C 277.277 311 270.377 310.7 267.877 311.7 Z M 985.677 365.5 C 983.077 368.9 981.877 375 980.077 393.8 C 979.277 402.5 978.177 411 977.677 412.7 C 974.977 421.9 965.977 427.5 954.977 426.8 C 948.677 426.4 948.577 426.4 947.477 429.5 L 938.077 457 L 923.677 499.2 L 911.477 534.7 C 908.177 544.5 896.977 576.6 886.577 606 L 861.277 678 L 829.277 768 C 805.077 835.7 795.377 863.2 782.077 900.8 C 778.877 909.7 776.077 916.9 775.877 916.7 C 775.577 916.4 783.577 893 801.577 841.5 L 854.577 688.5 L 891.577 581.6 C 899.277 559.6 905.377 541.5 905.177 541.3 C 904.977 541.1 904.177 542.9 903.277 545.2 L 849.577 686.5 L 782.477 863 L 761.477 918.1 C 758.277 926.6 755.577 934.1 755.577 934.7 C 755.577 935.4 757.577 935.3 761.377 934.4 C 776.351 931.532 791.429 929.23 806.577 927.5 C 853.566 922.62 900.743 919.751 947.977 918.9 C 971.677 918.3 991.177 917.7 991.177 917.6 L 991.977 675.7 C 992.477 466 992.377 434 991.177 434 C 987.677 434 987.677 409.4 991.177 403 C 992.777 400 993.077 397.2 993.077 384 C 993.077 375.5 992.777 367.3 992.277 365.7 C 991.277 362.2 988.377 362.1 985.677 365.5 Z M 262.777 367.7 C 261.177 371.9 260.677 375.1 259.177 393.1 C 257.577 411.6 256.377 415.4 250.177 420.8 C 246.177 424.3 237.477 427.1 229.677 427.6 L 224.277 427.8 L 208.077 475.7 C 181.777 553.2 154.577 630.9 101.577 779.5 L 64.977 882.3 C 60.177 895.9 56.077 906.9 55.877 906.7 C 61.969 887.032 68.571 867.525 75.677 848.2 L 96.477 788.2 C 113.245 739.99 129.945 691.757 146.577 643.5 L 178.677 550.7 L 196.477 499.2 L 213.477 450.2 C 217.977 437.3 221.577 426.6 221.577 426.3 C 221.577 426.1 220.877 426 219.977 426.2 C 218.777 426.4 205.177 461.2 172.477 547 L 123.177 676.5 L 114.577 699 L 98.577 741 C 94.856 750.658 91.156 760.325 87.477 770 L 75.577 801.5 L 55.577 854 L 31.877 916.3 C 27.777 927.2 24.577 936.4 24.977 936.7 C 25.277 937 27.477 936.8 29.777 936.2 C 66.777 926.9 144.377 920.4 242.877 918.4 L 275.777 917.7 L 275.177 891.6 C 273.267 770.401 271.4 649.201 269.577 528 C 268.077 423.5 268.577 434.5 265.577 434.5 C 262.477 434.5 261.877 432 261.777 419.5 C 261.677 413.5 262.177 409.2 263.277 406.5 C 264.456 402.616 264.93 398.552 264.677 394.5 C 264.577 390.1 264.977 383.5 265.577 379.8 C 266.077 376.1 266.277 371.2 265.977 369 C 265.177 364.3 264.277 363.9 262.777 367.7 Z M 55.177 908.3 C 55.477 908.5 55.177 909.8 54.677 911.1 C 54.177 912.4 53.677 913 53.677 912.3 C 53.577 911.7 53.877 910.4 54.177 909.5 C 54.577 908.6 54.977 908.1 55.177 908.3 Z M 53.277 914.4 C 53.577 914.6 53.277 915.7 52.677 916.7 C 51.477 918.7 51.277 918.1 52.177 915.5 C 52.577 914.6 53.077 914.1 53.277 914.4 Z M 611.577 272 L 662.577 272 L 662.577 1070 L 675.077 1070 C 684.377 1070 687.577 1070.3 687.577 1071.2 C 685.5 1077.483 682.608 1083.468 678.977 1089 L 674.977 1095.5 L 680.777 1106.1 L 686.677 1116.7 L 700.377 1117.4 C 768.977 1120.8 828.177 1131.9 842.077 1144.2 L 845.577 1147.2 L 845.577 1178.7 L 852.577 1179.4 C 859.662 1179.721 866.503 1182.082 872.277 1186.2 C 874.277 1188.1 874.777 1188.2 875.577 1187 C 876.177 1186 876.577 1195 876.577 1211.4 L 876.577 1237.4 L 871.777 1242 C 853.077 1260.1 775.877 1271.8 664.577 1273.6 C 532.977 1275.8 419.877 1261.7 401.077 1240.8 L 397.577 1237 L 397.677 1211.2 C 397.777 1197.1 397.977 1186.3 398.277 1187.2 C 398.677 1188.8 399.077 1188.7 402.077 1186.4 C 406.077 1183.4 414.677 1180.5 422.877 1179.6 L 428.577 1178.9 L 428.577 1163.9 C 428.577 1155.6 429.077 1148 429.577 1147 C 433.577 1139.6 470.877 1128.5 510.177 1123 C 525.877 1120.8 545.377 1119 563.277 1118 C 589.877 1116.4 587.677 1117.3 593.177 1105.8 L 597.877 1096.1 L 592.177 1083.8 C 589.077 1077 586.577 1071.1 586.577 1070.7 C 586.577 1070.3 592.177 1070 599.077 1070 L 611.577 1070 Z M 496.577 916 C 497.1 916.919 497.407 917.945 497.477 919 C 497.477 920.6 495.777 917.4 495.677 915.5 C 495.677 914.9 496.077 915.2 496.577 916 Z M 498.577 922 C 499.077 922.8 499.577 923.9 499.577 924.5 C 499.577 925 499.077 924.8 498.577 924 C 498.077 923.2 497.577 922 497.577 921.5 C 497.577 920.9 498.077 921.2 498.577 922 Z M 1224.577 925 C 1225.077 925.8 1225.577 926.9 1225.577 927.5 C 1225.577 928 1225.077 927.8 1224.577 927 C 1224.077 926.2 1223.577 925 1223.577 924.5 C 1223.577 923.9 1224.077 924.2 1224.577 925 Z"/>
</svg>

<svg version="1.0" width="1706.7" height="1698.7" viewBox="0 0 1280 1274" xmlns="http://www.w3.org/2000/svg"><path d="M669.3 21.1c2.4 4.8 2.8 6.5 2.8 14.4 0 8.2-.3 9.6-3.2 15a46.5 46.5 0 01-14.6 15.9c-2.7 1.7-2.8 1.9-2.5 9.8l.3 8.1 4 1.2c6.2 1.8 14.3 6.3 15.5 8.5 1.6 3 0 5.1-6.8 9-5.7 3.3-6 3.7-6.4 7.8-.3 3.7 0 4.5 2.2 5.9 5.6 3.5 6 4.7 6 20 0 7.9.3 14.3.7 14.3.3 0 5.2-2.2 10.7-4.9 32-16 67.8-23 103.6-20.2 28.6 2.8 44.2 8.7 91.4 34.9 26 14.6 32 16.7 45 16.6a59 59 0 0019-2.8c8.5-2.5 12.7-4.5 35.9-17.1 8.3-4.5 9.2-4.7 15-4.3 9.6 1 18.4 5.3 25.2 12.1l3.7 4.2 2.7-3.3c1.5-1.7 3.6-3.2 4.7-3.2 5.3 0 20.6 12 21.9 17.2.9 3.7-2.5 10.4-9.3 17.9-9.5 10.4-13.7 11.4-17.2 3.9s-5.5-7.5-13.7-.5c-12 10.2-16.3 17.7-16.3 28.2 0 6.5 2 11 5.6 11.9 3.3.8 10-3.9 12.7-9 1.5-2.8 2.5-3.6 4.7-3.6 5.4.8 10.5 3 14.8 6.5l3.2 2.7-5.7 11c-3.6 7-7 11.9-9.1 13.6-9.1 7.2-10 8.4-10.7 15-.5 4.3-1.1 6.2-2.1 6.2-1.1 0-1.4 2.1-1.4 9.9v9.8l7 .7c8.9.8 10.8 1.8 11.4 5.9.3 1.7.7 14.7 1 28.7.6 24.3 2.4 47.7 4.4 56.8 1.3 5.7 3.6 9 7.7 10.9 3.4 1.6 3.6 1.6 11.3-2 4.3-2 8.3-3.7 9-3.7 1.9 0 4 4.2 4.8 9.6.7 5.9-1.5 11.9-4.7 12.9-2.2.7-2.3 1.5-1 4.7l74 213.8 23 66.5 44 127c18 51.5 27 77.9 26.7 78.2-.2.2-1.8-3.8-3.6-8.9-4.7-13.6-21.8-61.8-50.7-142.8-25.4-71.1-31.6-88.8-56.5-159.5-15.7-44.8-61-176.2-60.8-177l-6.3.3c-8.3.5-13.8-1.1-18.4-5.1-5.8-5.1-7.3-9.9-9-28.1-2-23.3-3.8-29.6-8.8-29.6-2.1 0-2.4.5-3 5.2-.3 2.9-.2 9.3.3 14.3.5 4.9.7 10.6.4 12.6-.2 2.3.4 5.3 1.7 8.3 1.9 4.1 2 6.1 1.9 17.4l-.3 12.7-3.1.3-3.2.3-.6 15.2a163223.5 163223.5 0 00-5.6 365.2l-1.3 89.1-.2 14.1 24 .7c68.5 1.9 169.6 10.9 226.5 20.2 20.3 3.2 33 6.5 33 8.3 0 1.7-31.2 16.7-53.5 25.7a62.2 62.2 0 00-11.8 5.4c1.4 0 47.6-15.5 57.6-19.3l6.8-2.7-.7 2.3c-2.6 8.7-26 35.7-44 50.7a352.8 352.8 0 01-167 75.9c-116.8 20-228.4-11.2-302-84.4-16-15.8-25.8-28.1-30.5-37.9a24.5 24.5 0 01-2.5-6.4c.2-.2 1.7.3 3.3 1.2 10.6 5.4 75.3 28.7 79.5 28.6-4.1-2.2-8.4-4-12.8-5.4-30.3-11.5-71-31.2-70.1-34 .7-2.2 7-5.6 14-7.6l9.2-2.9c1.5-.6 4.3-7.2 11.4-26.2l41-111.4c66.4-179.6 93.6-251.9 128.5-341l12.5-32-3.2-2.6c-3-2.5-3.2-3.2-3.5-10.1-.3-6.2-.1-7.8 1.4-9.2 2.7-2.8 9.4-1.6 13.9 2.3 4 3.5 6 3.8 9.5 1.4 3.8-2.4 6.3-6.3 7-10.7 1.8-8.4 3-32 3-61.4V307l2.6-1a42 42 0 019.4-1.6l6.8-.7-.5-14.6c-.6-18.8-1-20.3-5.2-21.4-21-5.4-26.1-33.5-11.8-64 5.9-12.5 5.7-13.7-2-12.1-2.7.6-13.6 3.9-24.3 7.3-25 7.9-37.5 10.5-51 10.5-12.7 0-20-1.8-50.5-12.7-33.3-11.8-48.2-15.7-69-17.8a171.3 171.3 0 00-100.7 23.3l-10.8 6.1v34l-3.5 3.2c-2 1.9-5 3.8-7 4.5l-3.4 1.1 3.3 4.7a52.8 52.8 0 017.6 14.2c0 .7-8.8 1-26.5 1-21.8 0-26.5-.2-26.5-1.4a36 36 0 016.6-13.8l3.3-4.7-4.4-2.1c-8.2-3.9-8.5-4.9-8.5-23.9v-16.7l-8.7-5.1A173.9 173.9 0 00496 178.9c-21 2.2-35.4 5.9-70.1 18.2-30.5 10.7-36.6 12.2-49.4 12.3-13.5 0-26-2.6-51-10.5a529.5 529.5 0 00-24.3-7.3c-7.6-1.6-8-.4-2.4 11.1a66.7 66.7 0 018 32.8c.2 11.5-1.5 17.9-6.4 23.8-3 3.7-11.3 8.7-14.4 8.7-2.5 0-3.2 3.6-3.7 20.1l-.5 15.6 7 .7c3.9.3 8 1.2 9.4 1.9l2.4 1.2.3 38c.5 45.5 1.5 53.8 6.9 59.3l3.4 3.4 6-3.1c4.2-2.1 7.7-3.1 10.7-3.1 6.3 0 7.6 1.7 7.6 9.8 0 7.5-1.3 10.3-6 12.7l-2.7 1.4 4.3 12.3 27.4 79.3 32 92.7 17.9 51.5 23 66.8 38.7 111.4c13.5 38.7 24.3 70.6 24 70.8-.2.2-1.8-3.8-3.6-8.9-5.1-14.7-17.2-48.8-44.7-125.8L405 661l-25-71a9454.6 9454.6 0 01-54.6-159.8c-1-3.1-1.1-3.2-6.8-3.2-14.1 0-22.6-3.8-26.8-12.1-2-3.8-2.6-7.5-3.8-21.8-1.6-18.2-3-25.4-5-27.1-3.3-2.8-3.2 30.8 0 37.1 2 3.8 3.2 18.7 2 26.3-.6 4.4-.7 4.5-4.8 4.8l-4.2.3v11.7l.3 241.7.2 229.8 19.8.7c60 2.3 120 7 179.8 14.2l24 2.9c2.2.2 9.6 1.4 16.6 2.5 22 3.5 34.9 6.7 35.5 8.7.7 1.9-39.2 21.1-58.6 28.3-3.6 1.3-6 2.5-5.5 2.7a811.7 811.7 0 0055.7-18.5c5-2 7.7-2.6 7.7-1.8 0 2.3-7.4 13.5-15.2 23a315.4 315.4 0 01-67.3 56.5c-12.8 8-35.7 19.5-51.3 26-79.8 32-168 36.6-250.7 13a326.2 326.2 0 01-107.5-56 240 240 0 01-50.4-54.4c-5.7-9.4-5.1-10.1 4.7-5.9 20.6 8.9 70 26.3 71.3 25.2.2-.3-4.2-2.1-9.8-4.2a479.7 479.7 0 01-50.6-22.3C1 946.5.8 946.1 16.5 940l6.3-2.5 10.5-28 39-105.5c64.5-175.2 87.3-235.7 130.8-347.2l12.7-32.7-2.1-2.7c-1.7-2.1-2.1-4.1-2.1-9.4 0-7.4.3-7.8 6.3-9.9 3.6-1.2 4.2-1.1 11.2 2.2 7.4 3.5 7.4 3.5 9.8 1.7 5.6-4.4 6.7-13.5 7.4-60.2l.6-38.7 3-1c1.6-.6 5.3-1.1 8-1.1 7.6 0 8-.6 7.3-8.3-1-9.2.3-23.7 2-23 2.4.9.3-3.7-2.8-6-6.8-4.5-12-11-15.1-18.5l-5.7-11 3.2-2.7a29.9 29.9 0 0114.8-6.5c2.2 0 3.2.8 4.7 3.6 2.6 5.1 9.4 9.8 12.7 9 7.8-1.9 7.3-20.2-.7-30.3a85.4 85.4 0 00-10-9.8c-8.3-7.1-10.5-7-14 .5-3.3 7.4-6 7.1-15.1-2.3-8.2-8.1-12.2-15.2-11.1-19.5 1.3-5.3 16.6-17.2 22.3-17.2 1.4 0 2.6.9 3.4 2.4 1.8 4.1 3.8 4 7.5-.4a42.9 42.9 0 0124.7-11.8c6.7-.4 5.3-1 32.6 13.6a76 76 0 0038 10.5c9.5.1 11.3-.2 18.3-3 9.7-4.5 19.2-9.3 28.5-14.6 48.4-27 65.8-33 99.7-34.3 32.6-.7 64.9 6.6 94 21.2 5 2.4 9.4 4.4 9.8 4.4.4 0 .7-6.5.7-14.4v-14.4l4-3.6c3.5-3.1 4-4.2 4-7.8 0-4.2-.1-4.4-5.6-7.2-6.4-3.4-9.3-6.9-7.7-9.5 1.7-2.7 7.3-6 13.7-8l6-1.9.4-8 .3-8.1-3.8-2.5c-14.3-9.1-20.8-26.5-15.3-40.9a40 40 0 0124.3-23.3c14.6-4.8 33 4.1 41.4 19.7zM993 310.9l-4 .6-.3 7.9c-.2 5.7 0 8.2 1 8.7a46 46 0 0016.2.3c1.3-.5 1.6-2.2 1.6-8.5 0-7.4-.1-7.9-2.2-8.3-5.1-1-8.5-1.2-12.3-.7zm-725.2.8c-2 .7-1.8 14.7 0 16.2.9.7 3.8 1.1 6.9.9l5.3-.3.3-7.5c.2-6.2 0-7.7-1.4-8.7-1.7-1.3-8.6-1.6-11.1-.6zm717.8 53.8c-2.6 3.4-3.8 9.5-5.6 28.3-.8 8.7-2 17.2-2.4 18.9-2.7 9.2-11.7 14.8-22.7 14.1-6.3-.4-6.4-.4-7.5 2.7L938 457l-14.4 42.2-12.2 35.5c-3.3 9.8-14.5 41.9-25 71.3l-25.2 72-32 90c-24.2 67.7-34 95.2-47.2 132.8-3.2 8.9-6 16.1-6.2 15.9-.3-.3 7.7-23.7 25.7-75.2l53-153 37-106.9a976 976 0 0013.6-40.3c-.2-.2-1 1.6-2 3.9l-53.6 141.3L782.5 863l-21 55.1c-3.2 8.5-6 16-6 16.6 0 .7 2 .6 5.9-.3 15-2.9 30-5.2 45.2-6.9 47-4.9 94.1-7.7 141.4-8.6 23.7-.6 43.2-1.2 43.2-1.3l.8-241.9c.5-209.7.4-241.7-.8-241.7-3.5 0-3.5-24.6 0-31 1.6-3 1.9-5.8 1.9-19 0-8.5-.3-16.7-.8-18.3-1-3.5-4-3.6-6.6-.2zm-723 2.2c-1.5 4.2-2 7.4-3.5 25.4-1.6 18.5-2.8 22.3-9 27.7-4 3.5-12.7 6.3-20.5 6.8l-5.4.2-16.2 47.9c-26.3 77.5-53.5 155.2-106.5 303.8L65 882.3a364 364 0 01-9.1 24.4 1188 1188 0 0119.8-58.5l20.8-60 50-144.7 32.2-92.8 17.8-51.5 17-49c4.5-12.9 8-23.6 8-23.9 0-.2-.6-.3-1.5-.1-1.2.2-14.8 35-47.5 120.8l-49.3 129.5-8.6 22.5-16 42-11.1 29-12 31.5-20 52.5L32 916.3a150.1 150.1 0 00-7 20.4c.4.3 2.6.1 4.9-.5 37-9.3 114.6-15.8 213-17.8l33-.7-.6-26.1c-2-121.2-3.8-242.4-5.6-363.6-1.5-104.5-1-93.5-4-93.5-3.1 0-3.7-2.5-3.8-15-.1-6 .4-10.3 1.5-13a34 34 0 001.4-12c-.1-4.4.3-11 .9-14.7.5-3.7.7-8.6.4-10.8-.8-4.7-1.7-5.1-3.2-1.3zM55.3 908.3c.3.2 0 1.5-.5 2.8-.5 1.3-1 1.9-1 1.2-.1-.6.2-1.9.5-2.8.4-.9.8-1.4 1-1.2zm-2 6.1c.4.2 0 1.3-.5 2.3-1.2 2-1.4 1.4-.5-1.2.4-.9.9-1.4 1-1.1zM611.7 272h51v798H675c9.3 0 12.5.3 12.5 1.2-2.1 6.3-5 12.3-8.6 17.8l-4 6.5 5.8 10.6 5.9 10.6 13.7.7c68.6 3.4 127.8 14.5 141.7 26.8l3.5 3v31.5l7 .7c7 .3 13.9 2.7 19.7 6.8 2 1.9 2.5 2 3.3.8.6-1 1 8 1 24.4v26l-4.8 4.6c-18.7 18.1-96 29.8-207.2 31.6-131.6 2.2-244.7-11.9-263.5-32.8l-3.5-3.8v-25.8c.2-14.1.4-24.9.7-24 .4 1.6.8 1.5 3.8-.8 4-3 12.6-5.9 20.8-6.8l5.7-.7v-15c0-8.3.5-15.9 1-16.9 4-7.4 41.3-18.5 80.6-24 15.7-2.2 35.2-4 53-5 26.7-1.6 24.5-.7 30-12.2l4.7-9.7-5.7-12.3c-3.1-6.8-5.6-12.7-5.6-13.1 0-.4 5.6-.7 12.5-.7h12.5zm-115 644c.5 1 .8 2 .9 3 0 1.6-1.7-1.6-1.8-3.5 0-.6.4-.3.9.5zm2 6c.5.8 1 1.9 1 2.5 0 .5-.5.3-1-.5s-1-2-1-2.5c0-.6.5-.3 1 .5zm726 3c.5.8 1 1.9 1 2.5 0 .5-.5.3-1-.5s-1-2-1-2.5c0-.6.5-.3 1 .5z"/></svg>
